assets/images/bdc-seal.svg

<svg fill="none" height="100" viewBox="0 0 100 100" width="100" xmlns="http://www.w3.org/2000/svg" xmlns:xlink="http://www.w3.org/1999/xlink"><clipPath id="a"><path d="m0 0h100v100h-100z"/></clipPath><g clip-path="url(#a)"><path d="m50 99.5c27.3381 0 49.5-22.1619 49.5-49.5s-22.1619-49.5-49.5-49.5-49.5 22.1619-49.5 49.5 22.1619 49.5 49.5 49.5z" stroke="#000"/><path d="m50 96.5c25.6812 0 46.5-20.8188 46.5-46.5s-20.8188-46.5-46.5-46.5-46.5 20.8188-46.5 46.5 20.8188 46.5 46.5 46.5z" stroke="#000"/><path d="m50 77.5c15.1878 0 27.5-12.3122 27.5-27.5s-12.3122-27.5-27.5-27.5-27.5 12.3122-27.5 27.5 12.3122 27.5 27.5 27.5z" stroke="#000"/><path d="m50 74.5c13.531 0 24.5-10.969 24.5-24.5s-10.969-24.5-24.5-24.5-24.5 10.969-24.5 24.5 10.969 24.5 24.5 24.5z" stroke="#000"/><path d="m85.7537 61.0811c.8284 0 1.5-.6716 1.5-1.5 0-.8285-.6716-1.5-1.5-1.5-.8285 0-1.5.6715-1.5 1.5 0 .8284.6715 1.5 1.5 1.5z" stroke="#000"/><path d="m14.2446 61.0801c.8285 0 1.5-.6716 1.5-1.5s-.6715-1.5-1.5-1.5c-.8284 0-1.5.6716-1.5 1.5s.6716 1.5 1.5 1.5z" stroke="#000"/><g fill="#000"><path d="m62.9478 45.8952c.5101-3.7898-2.3652-5.7684-6.3072-7.106l1.2243-5.1275-3.1165-.7524-1.1872 5.0161c-.8255-.1951-1.6603-.3902-2.4858-.5574l1.1873-5.016-3.1536-.7524-1.2243 5.1275c-.6679-.1579-1.3449-.2787-2.0128-.4366l-4.2944-1.0311-.7884 3.3162s2.3281.5109 2.2446.5573c1.2614.3158 1.5026 1.1425 1.4562 1.7742l-1.382 5.8427c.0835.0372.1948.0372.3154.1208-.1206-.0372-.1948-.0372-.3154-.0743l-1.8921 8.1742c-.1577.3901-.5565.9475-1.4191.7524.0371.0371-2.291-.5574-2.291-.5574l-1.4748 3.5949 4.0626.9474c.7513.1951 1.5026.353 2.2075.5574l-1.2244 5.1739 3.1165.7524 1.2243-5.1275c.8719.2322 1.6974.4366 2.4858.6316l-1.2243 5.0904 3.1165.7524 1.2243-5.174c5.324.9475 9.3031.5109 10.917-4.3472 1.2985-3.8734-.1206-6.0842-2.9588-7.5425 2.0776-.4738 3.5802-1.8207 3.9698-4.5795zm-7.0121 10.0599c-.909 3.8735-7.448 1.8578-9.5443 1.3469l1.6139-6.8738c2.1333.5202 8.8764 1.4677 7.9304 5.5269zm.8626-10.0599c-.8255 3.5112-6.2701 1.8207-8.0417 1.3841l1.5026-6.2329c1.7345.4273 7.4109 1.1797 6.5391 4.8488z"/><path d="m24.7351 75.7886c1.0676-1.2044.973-2.7375-.0614-3.946-1.2189-1.4241-3.1752-1.6084-4.9374-.1001-1.7595 1.506-1.8935 3.4562-.6632 4.8937 1.1095 1.2963 2.6839 1.4384 3.8546.6993l-.8468-1.0001c-.7459.4217-1.5518.2076-2.11-.4446-.7564-.8838-.6359-2.0846.6152-3.1554 1.2298-1.0526 2.4516-1.0099 3.2149-.1182.5673.6629.6362 1.5032.082 2.1758z"/><path d="m30.6617 81.8685c1.3751-1.8679 1.0453-3.8076-.4699-4.923-1.5181-1.1176-3.4653-.8543-4.8404 1.0136-1.3731 1.8651-1.0482 3.8055.4699 4.9231 1.5152 1.1154 3.4652.8542 4.8404-1.0137zm-1.0525-.7748c-.968 1.3149-2.1538 1.5427-3.0962.8489-.9396-.6918-1.0772-1.8938-.1092-3.2087.968-1.3148 2.1567-1.5406 3.0963-.8488.9424.6938 1.0771 1.8937.1091 3.2086z"/><path d="m33.9602 79.7176-2.673 6.6593 1.1576.4646 1.8403-4.5848.0618.0248.0079 5.304.865.3472 3.6689-3.8168.0618.0248-1.8364 4.5751 1.1576.4646 2.673-6.6593-1.4762-.5926-3.9139 4.0319-.078-.0313-.0401-5.619z"/><path d="m42.5243 82.9247-.775 7.1338 1.2401.1347.5335-4.9114.0662.0072 1.4403 5.1047.9265.1006 2.5017-4.6659.0662.0072-.5324 4.901 1.24.1347.775-7.1338-1.5814-.1718-2.6794 4.9392-.0836-.0091-1.5563-5.3993z"/><path d="m56.1884 83.013.6207 4.5372c.1221.8922-.4119 1.6159-1.3874 1.7494-.979.1339-1.6843-.4203-1.8063-1.3125l-.6207-4.5371-1.2879.1761.6354 4.6448c.209 1.5275 1.4975 2.4157 3.2367 2.1777 1.7322-.2369 2.7418-1.4395 2.5329-2.967l-.6355-4.6448z"/><path d="m64.6417 80.337-1.2116.4511 1.7068 4.5839-.0591.022-4.8722-3.4053-1.0901.4059 2.5039 6.7247 1.2182-.4536-1.7055-4.5805.0558-.0208 4.8742 3.4008 1.0835-.4035z"/><path d="m67.3047 78.7138-1.127.6477 3.5755 6.2215 1.1271-.6477z"/><path d="m69.3704 78.8543 1.7326-1.3846 3.7995 4.7544 1.0073-.805-3.7995-4.7544 1.7326-1.3846-.6803-.8512-4.4725 3.5741z"/><path d="m73.8333 73.8233 5.132.8465 2.0658 1.7024.8245-1.0005-2.0659-1.7024-1.8119-4.8755-.9336 1.133 1.3335 3.3735-.0446.0541-3.5661-.6641z"/><path d="m16.771 46.8344.4904-2.8629c.2774-1.6197-.4119-2.5554-1.5136-2.7441-1.0705-.1834-1.8292.4687-1.9962 1.2151l-.069-.0119c-.044-.7185-.4341-1.3469-1.294-1.4942-1.0533-.1805-1.9639.4456-2.2266 1.979l-.46376 2.7075zm-.8511-1.4646-2.0721-.3549.2419-1.4125c.1355-.7909.703-1.1985 1.335-1.0902.5629.0964.8903.5507.7312 1.4796zm-2.9942-.5129-1.9512-.3342.2218-1.2951c.129-.7528.593-1.0751 1.1386-.9816.6216.1065.9221.677.8079 1.3435z"/><path d="m12.3275 35.2116-.4555 1.2175 6.7209 2.5142.4555-1.2175z"/><path d="m14.8464 32.0333 1.1516-1.8955 5.2014 3.1601.6694-1.102-5.2014-3.16 1.1516-1.8955-.9313-.5658-2.9726 4.893z"/><path d="m25.3574 20.7796c-1.2834-.9712-2.8046-.7581-3.9294.3667-1.3255 1.3255-1.3577 3.2902.2824 4.9303 1.6377 1.6377 3.5925 1.6203 4.9304.2824 1.2065-1.2065 1.2263-2.7872.3988-3.8972l-.9315.9217c.4781.7111.327 1.5311-.28 2.1381-.8225.8226-2.0291.7953-3.1935-.3691-1.1447-1.1447-1.1967-2.3661-.3667-3.1961.6169-.6169 1.4493-.7507 2.1629-.2502z"/><path d="m34.5603 16.3427c-1.153-2.0126-3.0606-2.4946-4.6931-1.5592-1.6357.9371-2.1815 2.8247-1.0284 4.8373 1.1513 2.0095 3.0575 2.4963 4.6931 1.5592 1.6326-.9354 2.1815-2.8247 1.0284-4.8373zm-1.1339.6497c.8117 1.4167.5409 2.5935-.4745 3.1752-1.0124.58-2.1675.2202-2.9792-1.1965s-.5379-2.5952.4745-3.1752c1.0154-.5818 2.1675-.2202 2.9792 1.1965z"/><path d="m38.0279 11.3419-1.2354.4043 2.2317 6.8199 1.2354-.4043z"/><path d="m48.168 9.47461-1.2841.15084.5707 4.85785-.0627.0074-3.9252-4.4638-1.1553.1357.8372 7.1268 1.291-.1517-.5703-4.8544.0592-.007 3.9283 4.46 1.1484-.1349z"/><path d="m58.3915 17.8205c2.1103.5715 3.7152-.395 4.3014-2.5595.5844-2.1577-.3152-3.7952-2.3782-4.354l-2.3944-.6484-1.8759 6.9262zm-.7984-1.3815 1.2878-4.755 1.0687.2894c1.4069.3811 1.9283 1.3644 1.4987 2.9506-.4314 1.5929-1.3796 2.1855-2.8237 1.7944z"/><path d="m64.2128 19.8113 4.098 2.2912.5318-.9511-2.9634-1.6569.9558-1.7095 2.7279 1.5252.5318-.9511-2.7279-1.5252.9507-1.7004 2.9389 1.6432.5318-.9511-4.0736-2.2776z"/><path d="m76.9605 22.4966.9244.8426c.7986-.9125.613-2.2432-.516-3.2723-1.1135-1.0149-2.5211-1.1507-3.3729-.2109-.694.7613-.5517 1.6922.1156 2.7129l.4617.7053c.4401.6667.6553 1.19.2826 1.6041-.4156.4507-1.1216.3619-1.7483-.2093-.6007-.5476-.8214-1.2418-.3527-1.8339l-.9452-.8615c-.9218 1.0893-.6777 2.3974.5574 3.5233 1.2715 1.159 2.5877 1.1972 3.4424.2648.8354-.9216.459-2.0327-.1662-2.9487l-.3839-.5775c-.3406-.5001-.6443-1.1135-.2355-1.5516.3661-.3964.9901-.3633 1.5909.1843.5723.5216.7072 1.133.3457 1.6284z"/><path d="m82.7086 26.1802-.7799-1.0399-5.7406 4.3054.7799 1.0399z"/><path d="m85.2076 35.1403.5722 1.1944c1.1749-.8077 1.5328-2.3312.847-3.7626-.8115-1.6937-2.665-2.3674-4.7505-1.3683-2.0476.9811-2.7365 2.8031-1.8811 4.5884.7675 1.602 2.3472 2.2555 4.0156 1.4561l.7773-.3724-1.2581-2.6258-.9163.439.7146 1.4914c-.9318.4232-1.8116.0871-2.2779-.8862-.5193-1.0838-.063-2.2154 1.4032-2.9179 1.4567-.6979 2.6274-.3303 3.1285.7156.374.7805.2112 1.5112-.3745 2.0483z"/><path d="m90.3173 45.4916-.2354-1.2713-4.8096.8905-.0114-.062 4.1946-4.2117-.2118-1.1438-7.0559 1.3064.2367 1.2782 4.8061-.8899.0108.0586-4.1905 4.2145.2105 1.1369z"/></g></g></svg>

<svg width="100" height="100" viewBox="0 0 100 100" fill="none" xmlns="http://www.w3.org/2000/svg">
<g clip-path="url(#clip0_243_817)">
<path d="M50 99.5C77.3381 99.5 99.5 77.3381 99.5 50C99.5 22.6619 77.3381 0.5 50 0.5C22.6619 0.5 0.5 22.6619 0.5 50C0.5 77.3381 22.6619 99.5 50 99.5Z" stroke="black"/>
<path d="M50 96.5C75.6812 96.5 96.5 75.6812 96.5 50C96.5 24.3188 75.6812 3.5 50 3.5C24.3188 3.5 3.5 24.3188 3.5 50C3.5 75.6812 24.3188 96.5 50 96.5Z" stroke="black"/>
<path d="M50 77.5C65.1878 77.5 77.5 65.1878 77.5 50C77.5 34.8122 65.1878 22.5 50 22.5C34.8122 22.5 22.5 34.8122 22.5 50C22.5 65.1878 34.8122 77.5 50 77.5Z" stroke="black"/>
<path d="M50 74.5C63.531 74.5 74.5 63.531 74.5 50C74.5 36.469 63.531 25.5 50 25.5C36.469 25.5 25.5 36.469 25.5 50C25.5 63.531 36.469 74.5 50 74.5Z" stroke="black"/>
<path d="M85.7537 61.0811C86.5821 61.0811 87.2537 60.4095 87.2537 59.5811C87.2537 58.7526 86.5821 58.0811 85.7537 58.0811C84.9252 58.0811 84.2537 58.7526 84.2537 59.5811C84.2537 60.4095 84.9252 61.0811 85.7537 61.0811Z" stroke="black"/>
<path d="M14.2446 61.0801C15.0731 61.0801 15.7446 60.4085 15.7446 59.5801C15.7446 58.7517 15.0731 58.0801 14.2446 58.0801C13.4162 58.0801 12.7446 58.7517 12.7446 59.5801C12.7446 60.4085 13.4162 61.0801 14.2446 61.0801Z" stroke="black"/>
<path d="M62.9478 45.8952C63.4579 42.1054 60.5826 40.1268 56.6406 38.7892L57.8649 33.6617L54.7484 32.9093L53.5612 37.9254C52.7357 37.7303 51.9009 37.5352 51.0754 37.368L52.2627 32.352L49.1091 31.5996L47.8848 36.7271C47.2169 36.5692 46.5399 36.4484 45.872 36.2905L41.5776 35.2594L40.7892 38.5756C40.7892 38.5756 43.1173 39.0865 43.0338 39.1329C44.2952 39.4487 44.5364 40.2754 44.49 40.9071L43.108 46.7498C43.1915 46.787 43.3028 46.787 43.4234 46.8706C43.3028 46.8334 43.2286 46.8334 43.108 46.7963L41.2159 54.9705C41.0582 55.3606 40.6594 55.918 39.7968 55.7229C39.8339 55.76 37.5058 55.1655 37.5058 55.1655L36.031 58.7604L40.0936 59.7078C40.8449 59.9029 41.5962 60.0608 42.3011 60.2652L41.0767 65.4391L44.1932 66.1915L45.4175 61.064C46.2894 61.2962 47.1149 61.5006 47.9033 61.6956L46.679 66.786L49.7955 67.5384L51.0198 62.3644C56.3438 63.3119 60.3229 62.8753 61.9368 58.0172C63.2353 54.1438 61.8162 51.933 58.978 50.4747C61.0556 50.0009 62.5582 48.654 62.9478 45.8952ZM55.9357 55.9551C55.0267 59.8286 48.4877 57.8129 46.3914 57.302L48.0053 50.4282C50.1386 50.9484 56.8817 51.8959 55.9357 55.9551ZM56.7983 45.8952C55.9728 49.4064 50.5282 47.7159 48.7566 47.2793L50.2592 41.0464C51.9937 41.4737 57.6701 42.2261 56.7983 45.8952Z" fill="black"/>
<path d="M24.7351 75.7886C25.8027 74.5842 25.7081 73.0511 24.6737 71.8426C23.4548 70.4185 21.4985 70.2342 19.7363 71.7425C17.9768 73.2485 17.8428 75.1987 19.0731 76.6362C20.1826 77.9325 21.757 78.0746 22.9277 77.3355L22.0809 76.3354C21.335 76.7571 20.5291 76.543 19.9709 75.8908C19.2145 75.007 19.335 73.8062 20.5861 72.7354C21.8159 71.6828 23.0377 71.7255 23.801 72.6172C24.3683 73.2801 24.4372 74.1204 23.883 74.793L24.7351 75.7886Z" fill="black"/>
<path d="M30.6617 81.8685C32.0368 80.0006 31.707 78.0609 30.1918 76.9455C28.6737 75.8279 26.7265 76.0912 25.3514 77.9591C23.9783 79.8242 24.3032 81.7646 25.8213 82.8822C27.3365 83.9976 29.2865 83.7364 30.6617 81.8685ZM29.6092 81.0937C28.6412 82.4086 27.4554 82.6364 26.513 81.9426C25.5734 81.2508 25.4358 80.0488 26.4038 78.7339C27.3718 77.4191 28.5605 77.1933 29.5001 77.8851C30.4425 78.5789 30.5772 79.7788 29.6092 81.0937Z" fill="black"/>
<path d="M33.9602 79.7176L31.2872 86.3769L32.4448 86.8415L34.2851 82.2567L34.3469 82.2815L34.3548 87.5855L35.2198 87.9327L38.8887 84.1159L38.9505 84.1407L37.1141 88.7158L38.2717 89.1804L40.9447 82.5211L39.4685 81.9285L35.5546 85.9604L35.4766 85.9291L35.4365 80.3101L33.9602 79.7176Z" fill="black"/>
<path d="M42.5243 82.9247L41.7493 90.0585L42.9894 90.1932L43.5229 85.2818L43.5891 85.289L45.0294 90.3937L45.9559 90.4943L48.4576 85.8284L48.5238 85.8356L47.9914 90.7366L49.2314 90.8713L50.0064 83.7375L48.425 83.5657L45.7456 88.5049L45.662 88.4958L44.1057 83.0965L42.5243 82.9247Z" fill="black"/>
<path d="M56.1884 83.013L56.8091 87.5502C56.9312 88.4424 56.3972 89.1661 55.4217 89.2996C54.4427 89.4335 53.7374 88.8793 53.6154 87.9871L52.9947 83.45L51.7068 83.6261L52.3422 88.2709C52.5512 89.7984 53.8397 90.6866 55.5789 90.4486C57.3111 90.2117 58.3207 89.0091 58.1118 87.4816L57.4763 82.8368L56.1884 83.013Z" fill="black"/>
<path d="M64.6417 80.337L63.4301 80.7881L65.1369 85.372L65.0778 85.394L60.2056 81.9887L59.1155 82.3946L61.6194 89.1193L62.8376 88.6657L61.1321 84.0852L61.1879 84.0644L66.0621 87.4652L67.1456 87.0617L64.6417 80.337Z" fill="black"/>
<path d="M67.3047 78.7138L66.1777 79.3615L69.7532 85.583L70.8803 84.9353L67.3047 78.7138Z" fill="black"/>
<path d="M69.3704 78.8543L71.103 77.4697L74.9025 82.2241L75.9098 81.4191L72.1103 76.6647L73.8429 75.2801L73.1626 74.4289L68.6901 78.003L69.3704 78.8543Z" fill="black"/>
<path d="M73.8333 73.8233L78.9653 74.6698L81.0311 76.3722L81.8556 75.3717L79.7897 73.6693L77.9778 68.7938L77.0442 69.9268L78.3777 73.3003L78.3331 73.3544L74.767 72.6903L73.8333 73.8233Z" fill="black"/>
<path d="M16.771 46.8344L17.2614 43.9715C17.5388 42.3518 16.8495 41.4161 15.7478 41.2274C14.6773 41.044 13.9186 41.6961 13.7516 42.4425L13.6826 42.4306C13.6386 41.7121 13.2485 41.0837 12.3886 40.9364C11.3353 40.7559 10.4247 41.382 10.162 42.9154L9.69824 45.6229L16.771 46.8344ZM15.9199 45.3698L13.8478 45.0149L14.0897 43.6024C14.2252 42.8115 14.7927 42.4039 15.4247 42.5122C15.9876 42.6086 16.315 43.0629 16.1559 43.9918L15.9199 45.3698ZM12.9257 44.8569L10.9745 44.5227L11.1963 43.2276C11.3253 42.4748 11.7893 42.1525 12.3349 42.246C12.9565 42.3525 13.257 42.923 13.1428 43.5895L12.9257 44.8569Z" fill="black"/>
<path d="M12.3275 35.2116L11.872 36.4291L18.5929 38.9433L19.0484 37.7258L12.3275 35.2116Z" fill="black"/>
<path d="M14.8464 32.0333L15.998 30.1378L21.1994 33.2979L21.8688 32.1959L16.6674 29.0359L17.819 27.1404L16.8877 26.5746L13.9151 31.4676L14.8464 32.0333Z" fill="black"/>
<path d="M25.3574 20.7796C24.074 19.8084 22.5528 20.0215 21.428 21.1463C20.1025 22.4718 20.0703 24.4365 21.7104 26.0766C23.3481 27.7143 25.3029 27.6969 26.6408 26.359C27.8473 25.1525 27.8671 23.5718 27.0396 22.4618L26.1081 23.3835C26.5862 24.0946 26.4351 24.9146 25.8281 25.5216C25.0056 26.3442 23.799 26.3169 22.6346 25.1525C21.4899 24.0078 21.4379 22.7864 22.2679 21.9564C22.8848 21.3395 23.7172 21.2057 24.4308 21.7062L25.3574 20.7796Z" fill="black"/>
<path d="M34.5603 16.3427C33.4073 14.3301 31.4997 13.8481 29.8672 14.7835C28.2315 15.7206 27.6857 17.6082 28.8388 19.6208C29.9901 21.6303 31.8963 22.1171 33.5319 21.18C35.1645 20.2446 35.7134 18.3553 34.5603 16.3427ZM33.4264 16.9924C34.2381 18.4091 33.9673 19.5859 32.9519 20.1676C31.9395 20.7476 30.7844 20.3878 29.9727 18.9711C29.161 17.5544 29.4348 16.3759 30.4472 15.7959C31.4626 15.2141 32.6147 15.5757 33.4264 16.9924Z" fill="black"/>
<path d="M38.0279 11.3419L36.7925 11.7462L39.0242 18.5661L40.2596 18.1618L38.0279 11.3419Z" fill="black"/>
<path d="M48.168 9.47461L46.8839 9.62545L47.4546 14.4833L47.3919 14.4907L43.4667 10.0269L42.3114 10.1626L43.1486 17.2894L44.4396 17.1377L43.8693 12.2833L43.9285 12.2763L47.8568 16.7363L49.0052 16.6014L48.168 9.47461Z" fill="black"/>
<path d="M58.3915 17.8205C60.5018 18.392 62.1067 17.4255 62.6929 15.261C63.2773 13.1033 62.3777 11.4658 60.3147 10.907L57.9203 10.2586L56.0444 17.1848L58.3915 17.8205ZM57.5931 16.439L58.8809 11.684L59.9496 11.9734C61.3565 12.3545 61.8779 13.3378 61.4483 14.924C61.0169 16.5169 60.0687 17.1095 58.6246 16.7184L57.5931 16.439Z" fill="black"/>
<path d="M64.2128 19.8113L68.3108 22.1025L68.8426 21.1514L65.8792 19.4945L66.835 17.785L69.5629 19.3102L70.0947 18.3591L67.3668 16.8339L68.3175 15.1335L71.2564 16.7767L71.7882 15.8256L67.7146 13.548L64.2128 19.8113Z" fill="black"/>
<path d="M76.9605 22.4966L77.8849 23.3392C78.6835 22.4267 78.4979 21.096 77.3689 20.0669C76.2554 19.052 74.8478 18.9162 73.996 19.856C73.302 20.6173 73.4443 21.5482 74.1116 22.5689L74.5733 23.2742C75.0134 23.9409 75.2286 24.4642 74.8559 24.8783C74.4403 25.329 73.7343 25.2402 73.1076 24.669C72.5069 24.1214 72.2862 23.4272 72.7549 22.8351L71.8097 21.9736C70.8879 23.0629 71.132 24.371 72.3671 25.4969C73.6386 26.6559 74.9548 26.6941 75.8095 25.7617C76.6449 24.8401 76.2685 23.729 75.6433 22.813L75.2594 22.2355C74.9188 21.7354 74.6151 21.122 75.0239 20.6839C75.39 20.2875 76.014 20.3206 76.6148 20.8682C77.1871 21.3898 77.322 22.0012 76.9605 22.4966Z" fill="black"/>
<path d="M82.7086 26.1802L81.9287 25.1403L76.1881 29.4457L76.968 30.4856L82.7086 26.1802Z" fill="black"/>
<path d="M85.2076 35.1403L85.7798 36.3347C86.9547 35.527 87.3126 34.0035 86.6268 32.5721C85.8153 30.8784 83.9618 30.2047 81.8763 31.2038C79.8287 32.1849 79.1398 34.0069 79.9952 35.7922C80.7627 37.3942 82.3424 38.0477 84.0108 37.2483L84.7881 36.8759L83.53 34.2501L82.6137 34.6891L83.3283 36.1805C82.3965 36.6037 81.5167 36.2676 81.0504 35.2943C80.5311 34.2105 80.9874 33.0789 82.4536 32.3764C83.9103 31.6785 85.081 32.0461 85.5821 33.092C85.9561 33.8725 85.7933 34.6032 85.2076 35.1403Z" fill="black"/>
<path d="M90.3173 45.4916L90.0819 44.2203L85.2723 45.1108L85.2609 45.0488L89.4555 40.8371L89.2437 39.6933L82.1878 40.9997L82.4245 42.2779L87.2306 41.388L87.2414 41.4466L83.0509 45.6611L83.2614 46.798L90.3173 45.4916Z" fill="black"/>
</g>
<defs>
<clipPath id="clip0_243_817">
<rect width="100" height="100" fill="white"/>
</clipPath>
</defs>
</svg>
